icon-themes/breeze_svg/cmd/32/subscript.svg

<svg viewBox="0 0 32 32" xmlns="http://www.w3.org/2000/svg"><path d="m20 20v10h1 4a3 3 0 0 0 3-3 3 3 0 0 0 -1.746094-2.722656 2.5 2.5 0 0 0 .746094-1.777344 2.5 2.5 0 0 0 -2.400391-2.496094v-.003906h-3.599609zm1 1h3.5a1.5 1.5 0 0 1 1.5 1.5 1.5 1.5 0 0 1 -1.5 1.5h-3.5zm0 4h4a2 2 0 0 1 2 2 2 2 0 0 1 -2 2h-4z" fill="#1d99f3"/><path d="m13 4-8.9296875 23.824219-.0703125.175781h2l3.3925781-9h4.6074219 4 .607422 2.013672l-5.621094-15h-1zm1 2.4023438 3.849609 10.5976562h-3.849609-3.849609z" fill="#4d4d4d"/></svg>

<svg xmlns="http://www.w3.org/2000/svg" viewBox="0 0 32 32">
 <path 
     style="fill:#1d99f3" 
     d="M 20 20 L 20 30 L 21 30 L 25 30 A 3 3 0 0 0 28 27 A 3 3 0 0 0 26.253906 24.277344 A 2.5 2.5 0 0 0 27 22.5 A 2.5 2.5 0 0 0 24.599609 20.003906 L 24.599609 20 L 21 20 L 20 20 z M 21 21 L 24.5 21 A 1.5 1.5 0 0 1 26 22.5 A 1.5 1.5 0 0 1 24.5 24 L 21 24 L 21 21 z M 21 25 L 25 25 A 2 2 0 0 1 27 27 A 2 2 0 0 1 25 29 L 21 29 L 21 25 z "
     />
 <path 
     style="fill:#4d4d4d" 
     d="M 13 4 L 4.0703125 27.824219 L 4 28 L 6 28 L 9.3925781 19 L 14 19 L 18 19 L 18.607422 19 L 20.621094 19 L 15 4 L 14 4 L 13 4 z M 14 6.4023438 L 17.849609 17 L 14 17 L 10.150391 17 L 14 6.4023438 z "
     />
</svg>
